X:205
T:The Blarney Pilgrim
M:6/8
L:1/8
K:DMix
D3 DEG|A3 ABc|BAG AGF|GEA GED|\
D3 DEG|A3 ABc|BAG AGF|GED D3 :|
|:d3 dBG|AGA BGE|d3 dBG|ABA G3|\
g2 e dBG|AGA BGE|BGB AGF|GED D3 :|
|:A2 D B2 D|A2 D ABc|BAG AGF|GEA GED|\
A2 D B2 D|A2 D ABc|BAG AGF|GED D3 :|
